!!!!SEGMENT: Ric1001b-Missa_O_genitrix-Gloria
!!!id: Ric1001b
!!!AGN: Mass; Gloria
!!!voices: 4
!!!OPR: Missa O genitrix
!!!COM: Jean Richafort
!!!OTL: Gloria
**kern	**kern	**kern	**kern
*part4	*part3	*part2	*part1
*staff4	*staff3	*staff2	*staff1
*I"Bassus	*I"Tenor	*I"Altus	*I"Superius
*I'B.	*I'T.	*I'A.	*I'S.
*clefF4	*clefGv2	*clefG2	*clefG2
*k[b-]	*k[b-]	*k[b-]	*k[b-]
*F:	*F:	*F:	*F:
*M2/1	*M2/1	*M2/1	*M2/1
*met(C|)	*met(C|)	*met(C|)	*met(C|)
=1	=1	=1	=1
!!section: Et in terra pax
!!!OMD: Et in terra pax
0r	0r	0r	1.g
.	.	.	2g
=2	=2	=2	=2
0r	1.G	0r	1g
.	.	.	1g
.	2G	.	.
=3	=3	=3	=3
0r	1G	1.d	[0dd
.	1G	.	.
.	.	2d	.
=4	=4	=4	=4
1.G	[0d	1d	0dd]
.	.	1d	.
2G	.	.	.
=5	=5	=5	=5
1G	0d]	1.g	1dd
1G	.	.	[1dd
.	.	4f	.
.	.	4e	.
=6	=6	=6	=6
1.B-y	1.d	0f	2dd]
.	.	.	2cc
.	.	.	1b-y
4A	2B-y	.	.
4G	.	.	.
=7	=7	=7	=7
2.F	2c	1.f	1.a
.	2.d	.	.
4D	.	.	.
2F	.	.	.
.	4c	.	.
[2G	4B-y	[2e	[2b-y
.	4A	.	.
=8	=8	=8	=8
4G]	2B-y	2e]	4b-]
4F	.	.	4a
2D	1A	1d	2f
1E	.	.	1g
.	2G	2c#i	.
=9	=9	=9	=9
0D	1A	0d	1f
.	1r	.	2r
.	.	.	2f
=10	=10	=10	=10
0r	1c	0r	2g
.	.	.	2a
.	2d	.	2b-y
.	2e	.	[2cc
=11	=11	=11	=11
0r	2.f	0r	4cc]
.	.	.	4b-y
.	.	.	4a
.	4e	.	4g
.	4d	.	2f
.	4c	.	.
.	2B-y	.	[2b-y
=12	=12	=12	=12
1r	2c	0r	2b-]
.	2.d	.	2a
2r	.	.	1b-y
.	4c	.	.
2G	2B-y	.	.
=13	=13	=13	=13
2G	1A	1r	0r
2F	.	.	.
1G	1G	2r	.
.	.	2g	.
=14	=14	=14	=14
2A	0r	2g	0r
1B-y	.	2f	.
.	.	1g	.
4A	.	.	.
4G	.	.	.
=15	=15	=15	=15
2F	0r	2a	0r
4G	.	1b-y	.
4A	.	.	.
4B-y	.	.	.
4c	.	.	.
[2d	.	4a	.
.	.	4g	.
=16	=16	=16	=16
4d]	2r	2f	0r
4c	.	.	.
2B-y	2G	1g	.
1A	2.c	.	.
.	.	2f#i	.
.	4d	.	.
=17	=17	=17	=17
0G	1e	0g	1r
.	1d	.	1g
=18	=18	=18	=18
1r	1f	2r	2.a
.	.	2d	.
.	.	.	4b-y
2r	2e	2g	2cc
2D	[2d	2a	[2dd
=19	=19	=19	=19
2G	2d]	2b-y	4dd]
.	.	.	4ee
2A	2c	2.a	1ff
1B-y	1d	.	.
.	.	4f	.
.	.	2g	4ee
.	.	.	4dd
=20	=20	=20	=20
1A	2e	1a	4cc
.	.	.	4b-y
.	1f	.	4a
.	.	.	4g
1r	.	2r	2.a
.	4e	2d	.
.	4d	.	4b-y
=21	=21	=21	=21
2r	4e	2g	2cc
.	4d	.	.
2D	2f	2a	1dd
2G	1e	2b-y	.
2A	.	[2a	2cc#i
=22	=22	=22	=22
1B-y	2d	4a]	1dd
.	.	4f	.
.	2G	2g	.
2A	2c	2a	2r
[2G	2d	2b-y	2d
=23	=23	=23	=23
2G]	2e-i	2B-y	2g
2F	2d	2f	2a
1G	2.B-y	4e	1b-y
.	.	4d	.
.	.	4g	.
.	8AL	4f	.
.	8GJ	.	.
=24	=24	=24	=24
2r	2c	4e	1a
.	.	4d	.
2D	2d	1d	.
2G	1e	.	1g
2A	.	2c#i	.
=25	=25	=25	=25
2B-y	1d	1d	1r
2G	.	.	.
1d	2r	1B-y	2r
.	2G	.	2g
=26	=26	=26	=26
0G	2B-y	0r	2g
.	2c	.	2g
.	2d	.	2.b-y
.	2e	.	.
.	.	.	4cc
=27	=27	=27	=27
0r	2f	0r	2dd
.	2.g	.	1ee-i
.	4f	.	.
.	4e	.	[2dd
.	4d	.	.
=28	=28	=28	=28
1r	1e	1r	2dd]
.	.	.	2cc#i
2r	1d	2r	[1dd
2d	.	2d	.
=29	=29	=29	=29
2d	1r	2f	1dd]
2d	.	2g	.
[1d	2r	2.a	1r
.	2d	.	.
.	.	8gL	.
.	.	8aJ	.
=30	=30	=30	=30
2d]	2d	2b-y	1d
2c	2d	1a	.
2.B-y	[1d	.	2f
.	.	[2g	2g
4c	.	.	.
=31	=31	=31	=31
1A	2d]	2g]	2.a
.	2c	2f	.
.	.	.	8gL
.	.	.	8aJ
2G	2B-y	2g	2b-y
2D	2d	[2f	[2a
=32	=32	=32	=32
2F	4c	4f]	2a]
.	4B-y	4e	.
2G	4A	4d	1g
.	4G	4c	.
1D	1A	1d	.
.	.	.	2f#i
=33	=33	=33	=33
2r	2r	0B-y	0g
2G	2G	.	.
2G	2G	.	.
2G	2G	.	.
=34	=34	=34	=34
1G	2.B-y	0r	0r
.	4c	.	.
2F	2d	.	.
[2G	[2e-i	.	.
=35	=35	=35	=35
2G]	2e-]	0r	0r
2F	1d	.	.
1E	.	.	.
.	2c#i	.	.
=36	=36	=36	=36
0D	1d	2r	2r
.	.	2d	2dd
.	1r	2d	2dd
.	.	2d	2dd
=37	=37	=37	=37
0r	0r	2.f	1dd
.	.	4g	.
.	.	2a	2cc
.	.	[2b-y	[2dd
=38	=38	=38	=38
0r	0r	2b-]	2dd]
.	.	1a	2cc
.	.	.	1b-y
.	.	2g	.
=39	=39	=39	=39
2r	2r	0a	0a
2D	2d	.	.
2D	2d	.	.
2D	2d	.	.
=40	=40	=40	=40
2F	1d	0r	0r
2G	.	.	.
2A	2c	.	.
[2B-y	[2d	.	.
=41	=41	=41	=41
4B-]	4d]	1r	1r
4A	4c	.	.
1G	2B-y	.	.
.	1A	1d	1dd
2F#i	.	.	.
=42	=42	=42	=42
1G	1G	2d	2dd
.	.	2d	2dd
1r	2r	2.f	1dd
.	2B-y	.	.
.	.	4g	.
=43	=43	=43	=43
1r	2A	2a	2cc
.	2G	2.b-y	2.dd
2r	1d	.	.
.	.	4a	4cc
2B-y	.	[2g	2b-y
=44	=44	=44	=44
2c	2r	2g]	1a
2d	2f	2f	.
1G	2e	2g	2g
.	2d	2G	2b-y
=45	=45	=45	=45
2r	4f	2A	2a
.	4e	.	.
2.G	4d	2.B-y	2g
.	4c	.	.
.	4B-y	.	[1dd
4A	4A	4c	.
[2B-y	4G	[2d	.
.	4F	.	.
=46	=46	=46	=46
4B-]	2.G	4d]	2dd]
4A	.	4c	.
4G	.	1f	2cc
4F	4A	.	.
1G	2B-y	.	2b-y
.	2B-y	2e	2b-y
=47	=47	=47	=47
1F	2c	2f	1a
.	2d	2f	.
2r	1G	2e	1r
2B-y	.	2d	.
=48	=48	=48	=48
2c	2r	1a	1r
2d	2f	.	.
1G	2e	2r	2r
.	2d	2g	2b-y
=49	=49	=49	=49
2r	4f	2d	2a
.	4e	.	.
2G	4d	2g	2g
.	4c	.	.
2D	4d	2f	2.dd
.	4c	.	.
[2G	4B-y	2d	.
.	4A	.	4cc
=50	=50	=50	=50
2G]	2G	2e	2b-y
2F	2A	2f	1a
1G	2B-y	1d	.
.	2B-y	.	2g
=51	=51	=51	=51
0D	0A	1r	1a
.	.	[1a	1f
=52	=52	=52	=52
1.d	0r	2a]	1r
.	.	2a	.
.	.	2.a	[1dd
2d	.	.	.
.	.	4g	.
=53	=53	=53	=53
2.d	1.B-y	2f	2dd]
.	.	2e	2dd
4c	.	.	.
2B-y	.	1d	2.dd
2A	2B-y	.	.
.	.	.	4cc
=54	=54	=54	=54
2G	1B-y	1r	2b-y
2F	.	.	2a
1E	1c	2.G	1g
.	.	4G	.
=55	=55	=55	=55
0D	1.d	2A	2.f
.	.	2B-y	.
.	.	.	4g
.	.	2A	2a
.	2d	[2a	2f
=56	=56	=56	=56
2.G	2d	2a]	2.b-y
.	2e	2g	.
4A	.	.	4cc
2B-y	2d	2f	4dd
.	.	.	4b-y
2c	[2g	2e	[2ee-i
=57	=57	=57	=57
2d	4g]	2.f	2ee-]
.	4f	.	.
2d	2f	.	1dd
.	.	4g	.
1A	1e	1a	.
.	.	.	2cc#i
=58	=58	=58	=58
2r	2d	1r	1dd
2G	2B-y	.	.
2G	2B-y	2r	1r
2A	2c	2f	.
=59	=59	=59	=59
1B-y	1d	2f	2b-y
.	.	2g	2b-y
2A	2r	2a	2cc
[2G	2B-y	[2b-y	[2dd
=60	=60	=60	=60
4G]	2B-y	4b-]	2dd]
4F	.	4a	.
2E	2c	2g	2cc
2.D	2.d	1f	2b-y
.	.	.	[2a
4E	8cL	.	.
.	8dJ	.	.
=61	=61	=61	=61
2F	4c	4f	4a]
.	4B-y	4e	4g
2G	4A	4d	1g
.	4G	4c	.
1D	1A	[1d	.
.	.	.	2f#i
=62	=62	=62	=62
2r	2G	1d]	1g
2G	2B-y	.	.
2G	2B-y	2r	1r
2A	2c	2f	.
=63	=63	=63	=63
1B-y	1d	2f	2b-y
.	.	2g	2b-y
2A	2r	2a	2cc
[2G	2B-y	[2b-y	[2dd
=64	=64	=64	=64
4G]	2B-y	4b-]	2dd]
4F	.	4a	.
2E	2c	2g	2cc
2.D	2.d	1f	2b-y
.	.	.	[2a
4E	8cL	.	.
.	8dJ	.	.
=65	=65	=65	=65
2F	4c	4f	4a]
.	4B-y	4e	4g
2G	4A	4d	1g
.	4G	4c	.
1D	1A	1d	.
.	.	.	2f#i
=66	=66	=66	=66
0Gl	0Gl	0dl	0gl
=67||	=67||	=67||	=67||
*M2/1	*M2/1	*M2/1	*M2/1
*met(C|)	*met(C|)	*met(C|)	*met(C|)
!!section: Domine Deus
!!!OMD: Domine Deus
0r	1d	0r	0r
.	2d	.	.
.	2d	.	.
=68	=68	=68	=68
0r	2.f	0r	0r
.	4e	.	.
.	4c	.	.
.	4d	.	.
.	[2e	.	.
=69	=69	=69	=69
1G	4e]	1r	0r
.	4d	.	.
.	2.d	.	.
2G	.	1d	.
.	4c	.	.
2G	4B-y	.	.
.	4A	.	.
=70	=70	=70	=70
1G	1B-y	2d	0r
.	.	2d	.
2.F	1A	2.f	.
4G	.	4e	.
=71	=71	=71	=71
4A	0r	4c	0r
4F	.	4d	.
2.G	.	2.e	.
4F	.	4d	.
4E	.	[2d	.
4D	.	.	.
=72	=72	=72	=72
1E	1r	4d]	0r
.	.	4c	.
.	.	4c	.
.	.	8B-yL	.
.	.	8AJ	.
[1D	1d	1B-y	.
=73	=73	=73	=73
1D]	2d	0A	0r
.	2d	.	.
1r	1f	.	.
=74	=74	=74	=74
1G	2e	1r	0r
.	2.d	.	.
2G	.	1d	.
.	4c	.	.
2G	4B-y	.	.
.	4A	.	.
=75	=75	=75	=75
2.B-y	4G	2d	0r
.	4A	.	.
.	4B-y	2d	.
4A	4c	.	.
4F	4d	2.f	.
4G	4B-y	.	.
[2A	[2c	.	.
.	.	4e	.
=76	=76	=76	=76
4A]	2c]	4c	0r
4G	.	4d	.
1G	4B-y	2e	.
.	4A	.	.
.	2B-y	2d	.
2F	[2c	[2a	.
=77	=77	=77	=77
1E	4c]	4a]	0r
.	4B-y	4g	.
.	4A	1g	.
.	4G	.	.
1D	1A	.	.
.	.	2f#i	.
=78	=78	=78	=78
2r	1G	0g	0r
2d	.	.	.
2c	1r	.	.
2c	.	.	.
=79	=79	=79	=79
2B-y	1g	0r	0r
2.c	.	.	.
.	2g	.	.
4B-y	.	.	.
4G	2g	.	.
4A	.	.	.
=80	=80	=80	=80
4B-y	2.f	0r	0r
4A	.	.	.
4B-y	.	.	.
4c	4e	.	.
2d	2f	.	.
[2e-i	[2g	.	.
=81	=81	=81	=81
4e-]	4g]	1g	0r
4d	4f	.	.
4c	4e	.	.
4B-y	4d	.	.
2c	2e	2g	.
[2B-y	[2d	2g	.
=82	=82	=82	=82
4B-]	2d]	2.f	0r
4A	.	.	.
4F	4c	.	.
4G	4B-y	4e	.
2A	4c	4e	.
.	4d	4d	.
2G	[2e-i	[2g	.
=83	=83	=83	=83
1B-y	4e-]	4g]	0r
.	4d	4f	.
.	1d	4e	.
.	.	4d	.
1A	.	2e	.
.	2c#i	2a	.
=84	=84	=84	=84
1D	0d	2a	0r
.	.	2a	.
2r	.	2b-y	.
2d	.	[2a	.
=85	=85	=85	=85
2d	0r	2a]	0r
2d	.	4g	.
.	.	4f	.
2e	.	2g	.
[2d	.	2a	.
=86	=86	=86	=86
2d]	1r	2d	0r
4c	.	1g	.
4B-y	.	.	.
2c	2r	.	.
2d	2d	2f	.
=87	=87	=87	=87
2G	2d	2g	0r
1d	2d	2.b-y	.
.	1e	.	.
.	.	4a	.
2c	.	[2a	.
=88	=88	=88	=88
1B-y	1d	4a]	0r
.	.	4g	.
.	.	4g	.
.	.	4f	.
1A	1r	1a	.
=89	=89	=89	=89
1r	1d	2.f	0r
.	.	4g	.
2r	2d	2a	.
2G	2d	[2b-y	.
=90	=90	=90	=90
2G	2.e-i	4b-]	0r
.	.	4a	.
2G	.	4g	.
.	4d	4f	.
2A	4c	2e	.
.	4B-y	.	.
[2G	2d	2g	.
=91	=91	=91	=91
2G]	2G	2g	0r
4F	2d	2g	.
4E	.	.	.
2F	2d	2a	.
2G	2d	[2g	.
=92	=92	=92	=92
2C	2.e-i	2g]	0r
1G	.	4f	.
.	4d	4e	.
.	2B-y	2d	.
2F	[2c	[2a	.
=93	=93	=93	=93
1E	4c]	4a]	0r
.	4B-y	4g	.
.	2G	1g	.
1D	1A	.	.
.	.	2f#i	.
=94	=94	=94	=94
0Gl	0Gl	0gl	0r
=95||	=95||	=95||	=95||
*M2/1	*M2/1	*M2/1	*M2/1
*met(C|)	*met(C|)	*met(C|)	*met(C|)
!!section: Qui tollis
!!!OMD: Qui tollis
0r	1G	0r	0r
.	2B-y	.	.
.	2A	.	.
=96	=96	=96	=96
1G	2.B-y	0r	0r
.	4c	.	.
2G	2d	.	.
2G	[2e-i	.	.
=97	=97	=97	=97
1G	4e-]	0r	0r
.	4d	.	.
.	4d	.	.
.	4c	.	.
2G	2e-i	.	.
2F	[2d	.	.
=98	=98	=98	=98
1E	2d]	0r	1g
.	2c#i	.	.
1D	1d	.	2b-y
.	.	.	2a
=99	=99	=99	=99
0r	2.G	1g	2.b-y
.	4A	.	4cc
.	2B-y	2g	2dd
.	[2c	2g	[2ee-i
=100	=100	=100	=100
0r	4c]	1g	4ee-]
.	4B-y	.	4dd
.	4B-y	.	4dd
.	4A	.	4cc
.	2c	2g	2ee-i
.	2d	2f	[2dd
=101	=101	=101	=101
2r	1A	1e	2dd]
2A	.	.	2cc#i
2B-y	1d	2d	1dd
2G	.	2g	.
=102	=102	=102	=102
1B-y	0r	2f	2r
.	.	2d	2dd
1A	.	2e	2cc
.	.	2f	2a
=103	=103	=103	=103
1G	2r	1g	2b-y
.	2g	.	2cc
2r	2.f	1r	1dd
2d	.	.	.
.	4d	.	.
=104	=104	=104	=104
2c	2e	1r	0r
2A	2f	.	.
2B-y	1g	2r	.
2c	.	2g	.
=105	=105	=105	=105
2d	0r	2f	2r
4c	.	2d	2dd
4B-y	.	.	.
4A	.	2e	2cc
4G	.	.	.
2A	.	2f	2a
=106	=106	=106	=106
1G	2r	1g	2.b-y
.	2G	.	.
.	.	.	4cc
1r	2.B-y	1r	1dd
.	4c	.	.
=107	=107	=107	=107
1G	2d	2r	1g
.	2e-i	2G	.
2G	2.d	2B-y	1r
2G	.	2c	.
.	4c	.	.
=108	=108	=108	=108
1G	4B-y	2d	0r
.	4A	.	.
.	2.B-y	2e-i	.
2G	.	1d	.
.	4A	.	.
2F	[2A	.	.
=109	=109	=109	=109
1E	4A]	4c	0r
.	4G	4B-y	.
.	1g	4A	.
.	.	4G	.
1D	.	1A	.
.	2f#i	.	.
=110	=110	=110	=110
1G	0g	2r	0r
.	.	2G	.
2r	.	2G	.
2G	.	2G	.
=111	=111	=111	=111
2.G	1r	2.B-y	2r
.	.	.	2g
4A	.	4c	.
2B-y	1g	2d	2g
2c	.	[2e-i	2g
=112	=112	=112	=112
2.G	2g	4e-]	2.b-y
.	.	4d	.
.	2g	1d	.
4A	.	.	4cc
2B-y	1g	.	2dd
2c	.	2c	[2ee-i
=113	=113	=113	=113
1d	2g	4B-y	2ee-]
.	.	4A	.
.	2f	2.a	1dd
1A	1e	.	.
.	.	4g	.
.	.	2e	2cc#i
=114	=114	=114	=114
1r	0d	1.f	[0dd
[1B-y	.	.	.
.	.	2e	.
=115	=115	=115	=115
2B-]	1r	2d	0dd]
2A	.	2c	.
2G	[1d	2B-y	.
4F	.	4A	.
4E	.	4G	.
=116	=116	=116	=116
1D	2d]	1A	1r
.	2c	.	.
[1d	2B-y	1r	[1ff
.	4A	.	.
.	4G	.	.
=117	=117	=117	=117
2d]	1F	1a	2ff]
2c	.	.	2ee
2B-y	[1f	1b-y	2dd
4A	.	.	4cc
4G	.	.	4b-y
=118	=118	=118	=118
1F	2f]	1a	1cc
.	2e	.	.
[1G	2d	1r	[1b-y
.	2c	.	.
=119	=119	=119	=119
2G]	[0B-y	1d	2b-]
2F	.	.	2a
2E	.	1e	2g
4D	.	.	4f
4C	.	.	4e
=120	=120	=120	=120
0BB-y	1B-]	1d	1f
.	[1d	2r	[1ff
.	.	2f	.
=121	=121	=121	=121
0r	2d]	2f	2ff]
.	2c	2f	2ee
.	2B-y	2g	2dd
.	4A	2g	2b-y
.	4G	.	.
=122	=122	=122	=122
0r	0F	4a	2cc
.	.	4g	.
.	.	4f	2dd
.	.	4e	.
.	.	2f	2cc
.	.	[2b-y	[2dd
=123	=123	=123	=123
2r	1.f	2b-]	2dd]
2F	.	4a	4cc
.	.	4g	4b-y
2F	.	1a	1cc
2F	2e	.	.
=124	=124	=124	=124
2G	2d	1b-y	1b-y
2G	2B-y	.	.
4A	2c	1r	1r
4G	.	.	.
4F	2d	.	.
4E	.	.	.
=125	=125	=125	=125
2F	2c	0r	0r
1B-y	1d	.	.
4A	4c	.	.
4G	4B-y	.	.
=126	=126	=126	=126
1A	1c	1r	0r
1B-y	1B-y	1d	.
=127	=127	=127	=127
0r	0r	2d	1a
.	.	2e	.
.	.	2f	2a
.	.	2g	2b-y
=128	=128	=128	=128
1r	0r	2e	1cc
.	.	2.f	.
2r	.	.	2a
.	.	4e	.
2G	.	4d	[2b-y
.	.	4c	.
=129	=129	=129	=129
2G	0r	4d	4b-]
.	.	4e	4a
2A	.	1f	4g
.	.	.	4f
2B-y	.	.	2g
2c	.	2e	2g
=130	=130	=130	=130
2A	1r	1f	1f
2.B-y	.	.	.
.	1d	1r	2r
4A	.	.	.
4G	.	.	2g
4F	.	.	.
=131	=131	=131	=131
1G	2d	0r	2g
.	2e	.	2g
1F	2.f	.	4a
.	.	.	4g
.	.	.	4a
.	4d	.	4b-y
=132	=132	=132	=132
0r	2e	1r	2cc
.	2.f	.	1dd
.	.	2r	.
.	4e	.	.
.	4d	2f	[2cc
.	4c	.	.
=133	=133	=133	=133
1r	2d	2f	2cc]
.	2d	2f	2b-y
2r	2c	2g	2cc
2F	2c	[2a	2cc
=134	=134	=134	=134
2F	2c	4a]	2cc
.	.	4g	.
2F	2d	4f	2a
.	.	4e	.
2G	2B-y	4d	2b-y
.	.	4e	.
2A	[2c	[2f	[2a
=135	=135	=135	=135
2F	4c]	4f]	4a]
.	4B-y	4e	4g
2G	4A	4d	4g
.	4G	4c	8fL
.	.	.	8eJ
[1D	[1A	1d	1f
=136	=136	=136	=136
1D]	1A]	2r	2r
.	.	2f	2a
1r	1r	2f	2a
.	.	2f	2a
=137	=137	=137	=137
2r	2r	2g	2b-y
2F	2c	2.a	2.cc
2F	2c	.	.
.	.	4g	4b-y
2F	2d	4f	4a
.	.	4e	4g
=138	=138	=138	=138
2G	2B-y	4d	2b-y
.	.	4e	.
2A	2.c	2.f	2.a
2F	.	.	.
.	4B-y	4e	4g
2G	4A	4d	[2g
.	4G	4c	.
=139	=139	=139	=139
1D	1A	1d	2g]
.	.	.	2f#i
2r	1G	2r	[1g
2G	.	2d	.
=140	=140	=140	=140
2G	1r	2d	1g]
2G	.	2e	.
2A	2r	1f	1r
[2B-y	2d	.	.
=141	=141	=141	=141
2B-]	2d	2d	0r
4A	2e	2B-y	.
4G	.	.	.
4F	1f	1c	.
4E	.	.	.
2F	.	.	.
=142	=142	=142	=142
2G	2d	1B-y	0r
1B-y	2B-y	.	.
.	1c	1r	.
2A	.	.	.
=143	=143	=143	=143
1B-y	1B-y	1.f	1r
1r	1r	.	1cc
.	.	2e	.
=144	=144	=144	=144
0r	0r	2d	2b-y
.	.	2c	2a
.	.	2e	2g
.	.	[2d	[2b-y
=145	=145	=145	=145
1r	0r	2d]	2b-]
.	.	4c	4a
.	.	4B-y	4g
1c	.	1A	1f
=146	=146	=146	=146
2B-y	1f	0r	0r
2A	.	.	.
4G	2e	.	.
4A	.	.	.
4B-y	2d	.	.
4G	.	.	.
=147	=147	=147	=147
2A	2c	0r	0r
2.B-y	2.d	.	.
4A	4c	.	.
[2G	2B-y	.	.
=148	=148	=148	=148
2G]	1A	2r	1r
2F#i	.	2f	.
1G	1G	2e	1b-y
.	.	2d	.
=149	=149	=149	=149
0r	1r	4c	2a
.	.	4d	.
.	.	4e	2g
.	.	4c	.
.	2r	4d	4f
.	.	4e	4g
.	2d	2f	4a
.	.	.	4f
=150	=150	=150	=150
0r	2c	2e	4g
.	.	.	4f
.	2B-y	1d	4e
.	.	.	4d
.	4A	.	1e
.	4B-y	.	.
.	4c	2c#i	.
.	4A	.	.
=151	=151	=151	=151
1G	4B-y	1d	1r
.	4c	.	.
.	1d	.	.
2F	.	2r	1cc
2E	2c	2e	.
=152	=152	=152	=152
4D	2.d	1f	2b-y
4E	.	.	.
4F	.	.	2a
4D	4c	.	.
4E	4B-y	2e	2a
4F	4A	.	.
2G	2B-y	[2d	2b-y
=153	=153	=153	=153
2F	4c	2d]	4a
.	4B-y	.	4g
2E	4A	2c	1g
.	4G	.	.
1D	1A	[1d	.
.	.	.	2f#i
=154	=154	=154	=154
1G	1G	1d]	0g
1r	1r	1r	.
=155	=155	=155	=155
1G	1B-y	1d	1g
1D	1A	1d	1f
=156	=156	=156	=156
2E	2G	2B-y	2g
2D	2A	2d	2f
2G	2B-y	2d	2g
2C	2c	2e	2g
=157	=157	=157	=157
2.D	1A	0d	2.f
4E	.	.	4g
2F	2r	.	2a
[2G	2d	.	[2b-y
=158	=158	=158	=158
2G]	2B-y	0r	2b-]
4F	2c	.	4a
4E	.	.	4g
2D	4d	.	2f
.	4c	.	.
2d	4B-y	.	[2b-y
.	4A	.	.
=159	=159	=159	=159
2B-y	2G	1r	2b-]
2c	2A	.	1a
1d	1B-y	2r	.
.	.	2d	2g
=160	=160	=160	=160
2r	1A	2d	1a
2c	.	2e	.
2B-y	1r	2f	1r
2A	.	2f	.
=161	=161	=161	=161
2G	0r	2.g	0r
2.c	.	.	.
.	.	4f	.
.	.	2g	.
4B-y	.	.	.
4A	.	[2a	.
4G	.	.	.
=162	=162	=162	=162
2F	0r	4a]	1r
.	.	4g	.
2A	.	1f	.
1G	.	.	2r
.	.	2e	2g
=163	=163	=163	=163
1F	2r	1f	2a
.	2f	.	2a
1r	2e	1r	2b-y
.	2d	.	2b-y
=164	=164	=164	=164
0r	2c	0r	2.cc
.	2.f	.	.
.	.	.	4b-y
.	.	.	2cc
.	4e	.	.
.	4d	.	[2dd
.	4c	.	.
=165	=165	=165	=165
0r	2B-y	0r	4dd]
.	.	.	4cc
.	2d	.	1b-y
.	1c	.	.
.	.	.	2a
=166	=166	=166	=166
1r	0B-y	0r	1b-y
1G	.	.	2r
.	.	.	2b-y
=167	=167	=167	=167
2F	1c	1f	2a
2F	.	.	2a
2G	2B-y	2d	2g
2D	2A	2f	2f
=168	=168	=168	=168
2E	2G	2e	2g
2G	2B-y	1d	2g
2D	2A	.	1f
[2F	2A	2c	.
=169	=169	=169	=169
2F]	2G	2d	1g
2E	1c	2e	.
1F	.	2A	2.a
.	2d	[2a	.
.	.	.	4b-y
=170	=170	=170	=170
1C	1e	2a]	1cc
.	.	2g	.
2r	1d	2f	2.b-y
[2G	.	2g	.
.	.	.	4a
=171	=171	=171	=171
2G]	2B-y	2d	2b-y
2F	1c	1f	1a
1G	.	.	.
.	2B-y	2e	2g
=172	=172	=172	=172
2D	2A	2d	2f
2E	2G	2c	1g
1D	1A	[1d	.
.	.	.	2f#i
=173	=173	=173	=173
1r	1G	1d]	1g
1G	1r	1r	2r
.	.	.	2b-y
=174	=174	=174	=174
2F	1c	1f	2a
2F	.	.	2a
2G	2B-y	2d	2g
2D	2A	2f	2f
=175	=175	=175	=175
2E	2G	2e	2g
2G	2B-y	1d	2g
2D	2A	.	1f
[2F	2A	2c	.
=176	=176	=176	=176
2F]	2G	2d	1g
2E	1c	2e	.
1F	.	2A	2.a
.	2d	[2a	.
.	.	.	4b-y
=177	=177	=177	=177
1C	1e	2a]	1cc
.	.	2g	.
2r	1d	2f	2.b-y
[2G	.	2g	.
.	.	.	4a
=178	=178	=178	=178
2G]	2B-y	2d	2b-y
2F	1c	1f	1a
1G	.	.	.
.	2B-y	2e	2g
=179	=179	=179	=179
2D	2A	2d	2f
2E	2G	2c	1g
1D	1A	1d	.
.	.	.	2f#i
=180	=180	=180	=180
00Gl	00Gl	00dl	00gl
==	==	==	==
*-	*-	*-	*-
!!!system-decoration: s1,s2,s3,s4
!!!RDF**kern: i = editorial accidental
!!!RDF**kern: l = terminal long
!!!ENC: David Nivarlet
!!!END: 2025/11/26
!!!EED: Benjamin Ory
!!!EEV: 2026/01/22
!!!YEC: Copyright 2026 Benjamin Ory, All Rights Reserved
!!!ONB: Translated from MusicXML on 2026/01/22